X: 175
T:Last Rose of Summer,The. CJF.175
M:3/4
L:1/8
Q:80
S:C.J.Fox MS, 1829/33, Beverley,E.Yorks.
R:Air
O:England
A:East Yorkshire
B:Kidson Coll.Mitchell Lib.M1805
N:The grace notes in the first and last bars interrupt beamed pairs in
N:the MS. - PJH.
Z:vmp.P J Headford 2000
K:G
"(Andante)"(G3/2{A/G/F/G/}A/)|B2g2{f}(e>d)|\
(dB3)G>A|B2{d}(c>B) {B}(A>G)|!
G4(G>A)|B2g2(e>d)|(dB3)G>A|B2{d}(c>B) {B}A>G|G2z:|!
|:(d>B)|g2(g>f) {f}(e>d)|d2B2(d>B)|g2(gf) (e>^d)|\
e2( {f/e/^d/e/)}  ({fa)}hg2(G>A)|!
B2g2(f>e)|(dB3)"~"G>A|B2{d/}(c>B) "tr"A{G/A/}G|G4:|]
